X:45
T:The Scholar #1
R:reel
O:Ireland
M:C|
L:1/8
K:Dmix
AA |: "D" dfaf "G" gfeg | "D" fdAG     FGAc | "G" BG~G2 "(Em)" EF Gg | "A" fde^c   "G" dcBA |
      "D" dfaf "G" gfeg | "D" fdAG     FGAc | "G" BG~G2 "(Em)" EF Gg |1 "A" fgef  "D" dAB^c :|2 "A" fgef "D" defg ||
   |: "D" a2af     dfaf | "D" dfaf "G" bagf | "C" g2ge          cege | "C" cege    "A" agfg |
      "D" a2af     dfaf | "D" dfaf "G" bfaf | "C" g2gf      "G" gbag |1 "D" fg"A"ef "D"defg :|2 "A" fgef "D" dAB^c |]
